X:7
T:College Hornpipe. RDO.07
M:4/4
L:1/8
Q:1/2=90
S:Robert D. Owen MS,Indiana,1826.
R:.Hornpipe
O:Indiana,USA
A:New Harmony
Z:vmp.Chris Partington
K:Bb
z2|B2B2B2FE|DFB4(3dcB|c2c2c2cB|Acf2f2ga|!
(ba)gf (gf)ed|ecde BAGF|GBAc Bdce|d2B2B2:|!
|:” sic”[Ff][Ee]|dfbf dfbf|g2e2e2gf|=egc’g egc’g|a2f2f2ga|!
b2g2f2df|edcB BAGF|GBAc Bdce|d2B2B2:|

